X:2917
L:1/8
Q:1/8=88
M:4/4
K:C
[K:G] d .MC- .C f D2 | G2 G2 (BA)Bc | d4 B2 (Bd) | d2 (Bd) d2 (Bd) | d2 cB A2 AB | c2 c2 e2 dc | 
 (BcdB) G2 (BG) | (AB)cA (FD)FA | G6 :: dd | d2 gg g2 dd | d2 ff f2 cc | c2 e2 ed (3(efe) | 
 d4 d2 dd | d2 gg g2 dd | d2 ff f2 cc | c2 e2 ed (3(efe) | d4 d3 B | c2 [ec]2 e2 dc | 
 (Bc)dB G2 BG | (AB)cA (FD)FA | G2 G2 B2 AG | c2 c2 e2 dc | (Bc)dB G2 BG | (AB)cA FDFA | G4 z2 :|

